app/dist/common/images/mitsui-o-s-k-lines.svg

<svg height="18" viewBox="0 0 18 18" width="18" xmlns="http://www.w3.org/2000/svg"><path d="m0 0h18v18h-18z" fill="#f0f3fa"/><path d="m2 12v-6h14v6zm5-5h4v4h-4zm2 .42c-1 0-1.68.65-1.68 1.58 0 .94.67 1.58 1.68 1.58 1 0 1.68-.64 1.68-1.58 0-.93-.69-1.58-1.68-1.58zm0 .35c.49 0 .67.38.67 1.23 0 .84-.18 1.22-.67 1.22s-.67-.38-.67-1.22c0-.85.18-1.23.67-1.23zm4.67-.2h-1.49v.35h.32v2.08h-.32v.36h2.82v-1.06h-.27c-.07.6-.51.69-.9.69h-.5v-2.07h.34zm-8.65 0h1.07v.35h-.3v2.08h.3v.36h-1.36v-.36h.27v-1.5l-.76 1.86h-.26l-.74-1.86v1.5h.31v.36h-.95v-.36h.32v-2.08h-.32v-.35h1.13l.61 1.64z" fill="#005396" fill-rule="evenodd"/></svg>

<!-- by TradingView --><svg xmlns="http://www.w3.org/2000/svg" width="18" height="18" viewBox="0 0 18 18"><path fill="#F0F3FA" d="M0 0h18v18H0z"/><path fill-rule="evenodd" d="M2 12V6h14v6H2zm5-5h4v4H7V7zm2 .42c-1 0-1.68.65-1.68 1.58 0 .94.67 1.58 1.68 1.58 1 0 1.68-.64 1.68-1.58 0-.93-.69-1.58-1.68-1.58zm0 .35c.49 0 .67.38.67 1.23 0 .84-.18 1.22-.67 1.22-.49 0-.67-.38-.67-1.22 0-.85.18-1.23.67-1.23zm4.67-.2h-1.49v.35h.32V10h-.32v.36H15V9.3h-.27c-.07.6-.51.69-.9.69h-.5V7.92h.34v-.35zm-8.65 0h1.07v.35h-.3V10h.3v.36H4.73V10H5V8.5l-.76 1.86h-.26L3.24 8.5V10h.31v.36H2.6V10h.32V7.92H2.6v-.35h1.13l.61 1.64.68-1.64z" fill="#005396"/></svg>
